icons/action/icon_copy_xxl_black.svg

<?xml version="1.0" encoding="UTF-8"?>
<svg width="48px" height="48px" viewBox="0 0 48 48" version="1.1" xmlns="http://www.w3.org/2000/svg" xmlns:xlink="http://www.w3.org/1999/xlink">
    <!-- Generator: Sketch 48.2 (47327) - http://www.bohemiancoding.com/sketch -->
    <title>Slice 3</title>
    <desc>Created with Sketch.</desc>
    <defs></defs>
    <g id="NFS" stroke="none" stroke-width="1" fill="none" fill-rule="evenodd">
        <g id="icon_tool_copy__xxl__black" transform="translate(1.000000, 0.000000)">
            <rect id="ph" x="0" y="0" width="48" height="48"></rect>
            <path d="M12,18.2863411 L21.4351212,9 L38.5,9 C40.4329966,9 42,10.5670034 42,12.5 L42,42.5 C42,44.4329966 40.4329966,46 38.5,46 L15.5,46 C13.5670034,46 12,44.4329966 12,42.5 L12,18.2863411 Z M13,18.702937 L13,42.5 C13,43.8807119 14.1192881,45 15.5,45 L38.5,45 C39.8807119,45 41,43.8807119 41,42.5 L41,12.5 C41,11.1192881 39.8807119,10 38.5,10 L21.7709636,10 L13,18.702937 Z" id="Combined-Shape" fill="#0A1E32"></path>
            <path d="M35,9 L34,9 L34,5.5 C34,4.11928813 32.8807119,3 31.5,3 L14.7709636,3 L6,11.702937 L6,35.5 C6,36.8807119 7.11928813,38 8.5,38 L12,38 L12,39 L8.5,39 C6.56700338,39 5,37.4329966 5,35.5 L5,11.2863411 L14.4351212,2 L31.5,2 C33.4329966,2 35,3.56700338 35,5.5 L35,9 Z" id="Combined-Shape" fill="#0A1E32" opacity="0.300000012"></path>
            <rect id="Rectangle" fill="#0A1E32" opacity="0.300000012" x="19" y="19" width="12" height="4"></rect>
            <rect id="Rectangle-Copy" fill="#0A1E32" opacity="0.300000012" x="19" y="26" width="16" height="4"></rect>
            <circle id="Oval" fill="#0A1E32" opacity="0.3" cx="22" cy="36" r="3"></circle>
        </g>
    </g>
</svg>

<svg width="48" height="48" viewBox="0 0 48 48" xmlns="http://www.w3.org/2000/svg"><g transform="translate(1)" fill="none" fill-rule="evenodd"><path d="M0 0h48v48H0z"/><path d="M12 18.286L21.435 9H38.5a3.5 3.5 0 0 1 3.5 3.5v30a3.5 3.5 0 0 1-3.5 3.5h-23a3.5 3.5 0 0 1-3.5-3.5V18.286zm1 .417V42.5a2.5 2.5 0 0 0 2.5 2.5h23a2.5 2.5 0 0 0 2.5-2.5v-30a2.5 2.5 0 0 0-2.5-2.5H21.771L13 18.703z" fill="#0A1E32"/><path d="M35 9h-1V5.5A2.5 2.5 0 0 0 31.5 3H14.771L6 11.703V35.5A2.5 2.5 0 0 0 8.5 38H12v1H8.5A3.5 3.5 0 0 1 5 35.5V11.286L14.435 2H31.5A3.5 3.5 0 0 1 35 5.5V9z" fill="#0A1E32" opacity=".3"/><path fill="#0A1E32" opacity=".3" d="M19 19h12v4H19zm0 7h16v4H19z"/><circle fill="#0A1E32" opacity=".3" cx="22" cy="36" r="3"/></g></svg>
